icons/device/tablet.svg

<svg width="32" height="32" viewBox="0 0 32 32" fill="none" xmlns="http://www.w3.org/2000/svg">
<path fill-rule="evenodd" clip-rule="evenodd" d="M6 2C4.89543 2 4 2.89543 4 4V28C4 29.1046 4.89543 30 6 30H26C27.1046 30 28 29.1046 28 28V4C28 2.89543 27.1046 2 26 2H6ZM6 4L26 4V28H6V4ZM12 26H20V24H12V26Z" fill="black"/>
</svg>

<svg width="32" height="32" viewBox="0 0 32 32" xmlns="http://www.w3.org/2000/svg">
    <path fill-rule="evenodd" d="M6 2a2 2 0 00-2 2v24a2 2 0 002 2h20a2 2 0 002-2V4a2 2 0 00-2-2H6zm0 2h20v24H6V4zm6 22h8v-2h-8v2z"/>
</svg>
